X:1
T: Mrs Stewart of Inverugie's Strathspey
C:William Marshall
R:Strathspey
Q: 128
K:D
M:4/4
L:1/16
|:DD3 F3D dcBA F4|B2E2 E2F2 G3A Bd3|DD3 F3A dcBA F2D2|A2d2 c2e2 d2D2 d2f2|
DD3 F3D dcBA F4|B2E2 E2F2 G3A Bd3|DD3 F3A dcBA F2D2|A2d2 c2e2 d2D2 d2f2|
d3A F3A dcBA d4|e3E E3F G3A B2c2|d3A F3A defg a2g2|f2d2 A2G2 F2D2 F2A2|
d3A F3A dcBA d4|e3E E3F G3A B2c2|d2f2 e2c2 d2B2 A2F2|G2B2 A2c2 d2D2 d2f2:|
